bundles/TRADES.design/Images/controlImageBlue.svg

<svg xmlns:dc="http://purl.org/dc/elements/1.1/" xmlns:cc="http://creativecommons.org/ns#" xmlns:rdf="http://www.w3.org/1999/02/22-rdf-syntax-ns#" xmlns:svg="http://www.w3.org/2000/svg" xmlns="http://www.w3.org/2000/svg" xmlns:sodipodi="http://sodipodi.sourceforge.net/DTD/sodipodi-0.dtd" xmlns:inkscape="http://www.inkscape.org/namespaces/inkscape" version="1.1" width="52.913381" height="56.692906" sodipodi:docname="controlImage.svg" inkscape:export-filename="C:\dev\ELTA\GitClones\TRADES\bundles\dsm.TRADES.edit\icons\custom\Control.png" inkscape:export-xdpi="29.02857" inkscape:export-ydpi="29.02857" inkscape:version="0.92.4 (5da689c313, 2019-01-14)" style=""><rect id="backgroundrect" width="100%" height="100%" x="0" y="0" fill="none" stroke="none"/>
  <metadata id="metadata18">
    <rdf:RDF>
      <cc:Work rdf:about="">
        <dc:format>image/svg+xml</dc:format>
        <dc:type rdf:resource="http://purl.org/dc/dcmitype/StillImage"/>
        <dc:title/>
      </cc:Work>
    </rdf:RDF>
  </metadata>
  <defs id="defs16"/>
  <sodipodi:namedview pagecolor="#ffffff" bordercolor="#666666" borderopacity="1" objecttolerance="10" gridtolerance="10" guidetolerance="10" inkscape:pageopacity="0" inkscape:pageshadow="2" inkscape:window-width="1920" inkscape:window-height="1017" id="namedview14" showgrid="false" inkscape:zoom="6.5333334" inkscape:cx="19.229648" inkscape:cy="34.056836" inkscape:window-x="-8" inkscape:window-y="1072" inkscape:window-maximized="1" inkscape:current-layer="g20" inkscape:document-rotation="0" units="mm" width="249mm" inkscape:snap-to-guides="true" inkscape:object-paths="true"/>
  
<g class="currentLayer" style=""><title>Layer 1</title><g inkscape:groupmode="layer" inkscape:label="Image" id="g20" class="" fill="#000099" fill-opacity="1" stroke="#000099" stroke-opacity="1">
    <g id="g824" inkscape:export-filename="C:\dev\ELTA\GitClones\TRADES\bundles\dsm.TRADES.edit\icons\custom\g824.png" inkscape:export-xdpi="29.02857" inkscape:export-ydpi="29.02857" fill="#000099" fill-opacity="1" stroke="#000099" stroke-opacity="1">
      <g id="g8" fill="#000099" fill-opacity="1" stroke="#000099" stroke-opacity="1">
        <g id="g6" stroke-width="0" fill="#000099" fill-opacity="1" stroke="#000099" stroke-opacity="1">
          <path inkscape:connector-curvature="0" id="path2" d="M49.209248393385835,10.444133523557035 C35.79721568938584,10.604632497557034 27.05544437338584,4.345172511557035 26.995569227385836,4.238173195557035 C26.63631835138584,3.970674905557035 26.15731718338584,3.970674905557035 25.85794145338584,4.238173195557035 C25.798066307385835,4.291672853557035 17.056294991385837,10.604632497557034 3.5843871413858364,10.390633865557033 c-0.4191260220000001,0 -0.838252044,0.26749829 -0.8981271900000001,0.6954955540000001 c-0.059875146000000004,0.37449760600000015 -1.437003504,8.666944596 0.718501752,17.975885088000002 c2.874007008,12.465420314000001 10.77752628,20.597368330000002 22.812430626,23.539849520000004 c0.059875146000000004,0 0.17962543800000005,0.053499658000000005 0.23950058400000002,0.053499658000000005 c0.059875146000000004,0 0.17962543800000005,0 0.23950058400000002,-0.053499658000000005 c12.034904346000001,-2.9424811900000005 19.938423617999998,-11.074429206000001 22.812430626,-23.539849520000004 c2.155505256,-9.308940492 0.7783768980000001,-17.654887140000003 0.718501752,-17.975885088000002 C50.047500437385835,10.711631813557034 49.68824956138584,10.444133523557035 49.209248393385835,10.444133523557035 zM26.396817767385834,51.05037394555704 C15.020540027385838,48.21489207155704 7.895397653385837,40.72493995155703 5.1411409373858366,28.84801587555704 C3.404761703385836,21.304564097557037 4.063388309385836,14.242609241557036 4.362764039385835,12.049123263557036 C16.218042947385836,11.995623605557034 24.24131251138584,7.287653701557035 26.396817767385834,5.896662593557034 c2.155505256,1.3909911080000001 10.178774820000001,6.098961012000001 22.034053728,6.152460670000001 c0.59875146,4.7079699040000005 2.9937573,32.741790696 -22.034053728,39.001250682000006 z" stroke-width="0" fill="#000099" fill-opacity="1" stroke="#000099" stroke-opacity="1"/>
          <path inkscape:connector-curvature="0" id="path4" d="m41.48535455938584,16.222096587557036 c0,0 0,0 0,0 C32.68370809738583,16.38259556155704 26.995569227385836,12.263121895557035 26.995569227385836,12.209622237557035 c-0.3592508760000001,-0.26749829 -0.838252044,-0.26749829 -1.137627774,0 c-0.059875146000000004,0.053499658000000005 -5.68813887,4.119473666 -14.549660478000002,4.012474350000001 c0,0 0,0 0,0 c-0.4191260220000001,0 -0.838252044,0.26749829 -0.8981271900000001,0.6954955540000001 c-0.059875146000000004,0.21399863200000002 -3.7122590520000003,23.058352598000003 15.747163398000001,27.766322502 c0.059875146000000004,0 0.17962543800000005,0.053499658000000005 0.23950058400000002,0.053499658000000005 c0.059875146000000004,0 0.17962543800000005,0 0.23950058400000002,-0.053499658000000005 C46.09574080138584,39.97594473955704 42.44335689538583,17.131590773557036 42.38348174938584,16.917592141557037 C42.323606603385834,16.543094535557035 41.964355727385836,16.222096587557036 41.48535455938584,16.222096587557036 zM26.396817767385834,43.07892490355704 C10.529904077385837,39.06645055355704 11.667531851385835,21.51856272955704 12.086657873385837,17.827086327557037 C19.57105112338584,17.720087011557037 24.720313679385836,14.884605137557037 26.396817767385834,13.814611977557036 c1.676504088,1.06999316 6.825766644000001,3.905475034 14.310159894,4.012474350000001 c0.4191260220000001,3.6914764020000006 1.5567537960000002,21.239364226000003 -14.310159894,25.251838576000004 z" stroke-width="0" fill="#000099" fill-opacity="1" stroke="#000099" stroke-opacity="1"/>
        </g>
      </g>
      <path id="path22" d="M41.847733967385835,22.600477388748168 L18.608107967385838,38.996540388748166 " style="stroke-width: 0.952406; stroke-linecap: butt; stroke-linejoin: miter; stroke-miterlimit: 4; stroke-dasharray: none;" inkscape:connector-curvature="0" fill="#000099" fill-opacity="1" stroke="#000099" stroke-opacity="1"/>
      <path id="path22-5" d="M36.53910996738584,16.79704738874817 L13.777043967385836,31.79003938874817 " style="stroke-width: 0.886904; stroke-linecap: butt; stroke-linejoin: miter; stroke-miterlimit: 4; stroke-dasharray: none;" inkscape:connector-curvature="0" fill="#000099" fill-opacity="1" stroke="#000099" stroke-opacity="1"/>
    </g>
  </g></g></svg>

<?xml version="1.0" encoding="UTF-8" standalone="no"?>
<svg
   xmlns:dc="http://purl.org/dc/elements/1.1/"
   xmlns:cc="http://creativecommons.org/ns#"
   xmlns:rdf="http://www.w3.org/1999/02/22-rdf-syntax-ns#"
   xmlns:svg="http://www.w3.org/2000/svg"
   xmlns="http://www.w3.org/2000/svg"
   xmlns:sodipodi="http://sodipodi.sourceforge.net/DTD/sodipodi-0.dtd"
   xmlns:inkscape="http://www.inkscape.org/namespaces/inkscape"
   version="1.1"
   width="60"
   height="60"
   sodipodi:docname="controlImageBlue.svg"
   inkscape:export-filename="C:\dev\ELTA\GitClones\TRADES\bundles\dsm.TRADES.edit\icons\custom\Control.png"
   inkscape:export-xdpi="29.02857"
   inkscape:export-ydpi="29.02857"
   inkscape:version="0.92.4 (5da689c313, 2019-01-14)"
   id="svg18">
  <rect
     id="backgroundrect"
     width="100%"
     height="100%"
     x="0"
     y="3.3070946"
     style="fill:none;stroke:none" />
  <metadata
     id="metadata18">
    <rdf:RDF>
      <cc:Work
         rdf:about="">
        <dc:format>image/svg+xml</dc:format>
        <dc:type
           rdf:resource="http://purl.org/dc/dcmitype/StillImage" />
        <dc:title></dc:title>
      </cc:Work>
    </rdf:RDF>
  </metadata>
  <defs
     id="defs16" />
  <sodipodi:namedview
     pagecolor="#ffffff"
     bordercolor="#666666"
     borderopacity="1"
     objecttolerance="10"
     gridtolerance="10"
     guidetolerance="10"
     inkscape:pageopacity="0"
     inkscape:pageshadow="2"
     inkscape:window-width="1920"
     inkscape:window-height="1017"
     id="namedview14"
     showgrid="false"
     inkscape:zoom="6.5333334"
     inkscape:cx="-10.61729"
     inkscape:cy="34.056836"
     inkscape:window-x="-8"
     inkscape:window-y="1072"
     inkscape:window-maximized="1"
     inkscape:current-layer="g20"
     inkscape:document-rotation="0"
     units="mm"
     width="249mm"
     inkscape:snap-to-guides="true"
     inkscape:object-paths="true" />
  <g
     class="currentLayer"
     id="g16"
     transform="translate(0,3.3070946)">
    <title
       id="title6">Layer 1</title>
    <g
       inkscape:groupmode="layer"
       inkscape:label="Image"
       id="g20"
       class=""
       style="fill:#000099;fill-opacity:1;stroke:#000099;stroke-opacity:1">
      <rect
         style="fill:#ffffff;fill-opacity:0.00392157;stroke:#000099;stroke-width:0.5477758;stroke-linecap:round;stroke-linejoin:round;stroke-miterlimit:4;stroke-dasharray:none;stroke-opacity:1;paint-order:stroke markers fill"
         id="rect4522"
         width="58.452225"
         height="58.452225"
         x="0.77388763"
         y="-2.5332069" />
      <g
         id="g824"
         inkscape:export-filename="C:\dev\ELTA\GitClones\TRADES\bundles\dsm.TRADES.edit\icons\custom\g824.png"
         inkscape:export-xdpi="29.02857"
         inkscape:export-ydpi="29.02857"
         style="fill:#000099;fill-opacity:1;stroke:#000099;stroke-opacity:1"
         transform="matrix(0.98933635,0,0,0.98729241,3.8254321,-1.2933363)">
        <g
           id="g8"
           style="fill:#000099;fill-opacity:1;stroke:#000099;stroke-opacity:1">
          <g
             id="g6"
             style="fill:#000099;fill-opacity:1;stroke:#000099;stroke-width:0;stroke-opacity:1">
            <path
               inkscape:connector-curvature="0"
               id="path2"
               d="M 49.209248,10.444134 C 35.797216,10.604632 27.055444,4.3451725 26.995569,4.2381732 c -0.359251,-0.2674983 -0.838252,-0.2674983 -1.137628,0 -0.05988,0.0535 -8.801646,6.3664588 -22.2735539,6.1524608 -0.419126,0 -0.838252,0.267498 -0.8981271,0.695495 -0.059875,0.374498 -1.4370036,8.666945 0.7185017,17.975886 2.874007,12.46542 10.7775263,20.597368 22.8124303,23.539849 0.05987,0 0.179626,0.0535 0.239501,0.0535 0.05987,0 0.179625,0 0.2395,-0.0535 C 38.731098,49.659383 46.634617,41.527435 49.508624,29.062015 51.664129,19.753074 50.287001,11.407127 50.227126,11.086129 50.0475,10.711632 49.68825,10.444134 49.209248,10.444134 Z m -22.81243,40.60624 C 15.02054,48.214892 7.8953977,40.72494 5.1411409,28.848016 3.4047617,21.304564 4.0633883,14.242609 4.362764,12.049123 c 11.855279,-0.0535 19.878549,-4.7614693 22.034054,-6.1524604 2.155505,1.3909911 10.178775,6.0989614 22.034053,6.1524604 0.598752,4.70797 2.993758,32.741791 -22.034053,39.001251 z"
               style="fill:#000099;fill-opacity:1;stroke:#000099;stroke-width:0;stroke-opacity:1" />
            <path
               inkscape:connector-curvature="0"
               id="path4"
               d="m 41.485355,16.222097 c 0,0 0,0 0,0 -8.801647,0.160499 -14.489786,-3.958975 -14.489786,-4.012475 -0.359251,-0.267498 -0.838252,-0.267498 -1.137628,0 -0.05988,0.0535 -5.688138,4.119474 -14.54966,4.012475 0,0 0,0 0,0 -0.419126,0 -0.838252,0.267498 -0.898127,0.695495 -0.05987,0.213999 -3.7122593,23.058353 15.747163,27.766323 0.05988,0 0.179626,0.0535 0.239501,0.0535 0.05988,0 0.179625,0 0.2395,-0.0535 19.459423,-4.70797 15.807039,-27.552324 15.747164,-27.766323 -0.05987,-0.374497 -0.419126,-0.695495 -0.898127,-0.695495 z M 26.396818,43.078925 C 10.529904,39.066451 11.667532,21.518563 12.086658,17.827086 c 7.484393,-0.106999 12.633656,-2.942481 14.31016,-4.012474 1.676504,1.069993 6.825766,3.905475 14.31016,4.012474 0.419126,3.691477 1.556753,21.239365 -14.31016,25.251839 z"
               style="fill:#000099;fill-opacity:1;stroke:#000099;stroke-width:0;stroke-opacity:1" />
          </g>
        </g>
        <path
           id="path22"
           d="M 41.847734,22.600477 18.608108,38.99654"
           style="fill:#000099;fill-opacity:1;stroke:#000099;stroke-width:0.95240599;stroke-linecap:butt;stroke-linejoin:miter;stroke-miterlimit:4;stroke-dasharray:none;stroke-opacity:1"
           inkscape:connector-curvature="0" />
        <path
           id="path22-5"
           d="M 36.53911,16.797047 13.777044,31.790039"
           style="fill:#000099;fill-opacity:1;stroke:#000099;stroke-width:0.886904;stroke-linecap:butt;stroke-linejoin:miter;stroke-miterlimit:4;stroke-dasharray:none;stroke-opacity:1"
           inkscape:connector-curvature="0" />
      </g>
    </g>
  </g>
</svg>
